X:1006
T:Scale Navigation E
O:Kevin Fraser
Z:Kevin Fraser
Q:1/4=120
K:HP
M:4/4
L:1/4
R:March
V:gstem=up stem=down
%%MIDI gracedivider 4
%%MIDI gchord
%%MIDI beatstring
[| e  G  e  B  |  e  c  e  d  |  e  A  e  f  |  e  g   e  a  |  a  e  g   e  |  f   e  A  e |  d  e  c  e  |  B  e   G  e  |] 
w: A  G  A  B  |  A  c  A  d  |  A  A  A  f  |  A  g   A  a  |  a  A  g   A  |  f   A  A  A |  d  A  c  A  |  B  A   G  A  :|
w: e em e o  |  e o  e a  |  e en  e ve |  e di  e I  |  I  e di  e |  ve  e e  e|  a  en o  e |  o  e  em e :| 

